X: 30179
T: Old Fashion, The
R: reel
M: 4/4
K: Edorian
|:B ~e3 ed (3Bcd|eA ~A2 Be dB|~A2 Be dB AF|~E2 FD ~E2 FA|
B ~e3 ed (3Bcd|eA ~A2 Be de|~f3 e de fe|1 dB AF ~E2 FA:|2 dB AF ~E2 z2||
|:Beed efga|be Bc d2 cd|Beed efgd|Bd A=c BE E2|
Beed efga|be Bc d2 ef|gf ed ed BA|Bd A=c BE ~E2:|

